X:446
T:Old Black Joe, Badby
M:6/8
L:1/8
K:G
D2G GFG | A2B cBA | dBG DAc | BcA G3 ||
GFG A2d | A2d AFD | GFG B2A | GFE D2E |
D2G GFG | A2B cBA | dBG DAc | BcA G3 ||
